dist/img/contacts/whatsapp.svg

<svg width="49" height="49" viewBox="0 0 49 49" fill="none" xmlns="http://www.w3.org/2000/svg">
<path d="M41.8593 7.12962C39.6018 4.86075 36.913 3.06182 33.9495 1.83777C30.986 0.613708 27.8072 -0.0109762 24.5985 0.000145945C11.1543 0.000145945 0.196985 10.9026 0.196985 24.2796C0.196985 28.5671 1.32965 32.7321 3.44724 36.407L0.457001 47.3306C0.25382 48.0728 0.93005 48.7568 1.67455 48.562L12.9271 45.619C16.4975 47.5545 20.5111 48.5835 24.5985 48.5835C38.0427 48.5835 49 37.681 49 24.3041C49 17.8116 46.4638 11.7111 41.8593 7.12962ZM24.5985 44.4675C20.9543 44.4675 17.3839 43.4875 14.2568 41.65L13.5181 41.209L7.51135 42.7798C6.7666 42.9746 6.0903 42.2901 6.294 41.5477L7.8794 35.77L7.38693 35.0105C5.36229 31.7936 4.28723 28.0752 4.28442 24.2796C4.28442 13.1566 13.395 4.09163 24.5739 4.09163C29.991 4.09163 35.0879 6.19863 38.9045 10.0206C40.7943 11.8923 42.2919 14.1186 43.3106 16.5705C44.3292 19.0224 44.8486 21.651 44.8387 24.3041C44.8879 35.427 35.7774 44.4675 24.5985 44.4675ZM35.7281 29.3756C35.1126 29.0816 32.1085 27.6116 31.5668 27.3911C31.0005 27.1951 30.6065 27.0971 30.1879 27.6851C29.7693 28.2976 28.6121 29.6696 28.2673 30.0616C27.9226 30.4781 27.5533 30.5271 26.9377 30.2086C26.3221 29.9146 24.3523 29.2531 22.0377 27.1951C20.2156 25.5781 19.009 23.5936 18.6397 22.9811C18.295 22.3686 18.5904 22.0501 18.9105 21.7316C19.1814 21.4621 19.5261 21.0211 19.8216 20.6781C20.1171 20.3351 20.2402 20.0656 20.4372 19.6736C20.6342 19.2571 20.5357 18.9141 20.3879 18.6201C20.2402 18.3261 19.009 15.3371 18.5166 14.1121C18.0241 12.9361 17.507 13.0831 17.1377 13.0586H15.9558C15.5372 13.0586 14.897 13.2056 14.3307 13.8181C13.7889 14.4306 12.2131 15.9006 12.2131 18.8896C12.2131 21.8786 14.4045 24.7696 14.7 25.1616C14.9955 25.5781 19.009 31.7031 25.1156 34.3245C26.5683 34.9615 27.701 35.329 28.5874 35.5985C30.0402 36.064 31.3698 35.9905 32.4286 35.8435C33.6106 35.672 36.0482 34.3735 36.5407 32.9525C37.0578 31.5316 37.0578 30.3311 36.8854 30.0616C36.7131 29.7921 36.3437 29.6696 35.7281 29.3756Z" fill="#FFFBF5"/>
</svg>

<svg width="49" height="49" fill="none" xmlns="http://www.w3.org/2000/svg"><path d="M41.86 7.13a24.178 24.178 0 00-7.91-5.292A24.276 24.276 0 0024.598 0C11.155 0 .198 10.903.198 24.28a24.26 24.26 0 003.25 12.127L.457 47.331a1 1 0 001.218 1.231l11.252-2.943A24.505 24.505 0 0024.6 48.584c13.443 0 24.4-10.904 24.4-24.281 0-6.492-2.536-12.593-7.14-17.174zM24.598 44.467a20.42 20.42 0 01-10.342-2.817l-.739-.441-6.007 1.57a1 1 0 01-1.217-1.231l1.585-5.778-.492-.76a20.172 20.172 0 01-3.103-10.73c0-11.123 9.111-20.188 20.29-20.188 5.417 0 10.514 2.107 14.33 5.929a20.043 20.043 0 014.407 6.55 19.962 19.962 0 011.528 7.733c.049 11.123-9.062 20.164-20.24 20.164zm11.13-15.091c-.616-.294-3.62-1.764-4.162-1.985-.567-.196-.96-.294-1.38.294-.418.613-1.575 1.985-1.92 2.377-.344.416-.714.465-1.33.147-.615-.294-2.585-.956-4.9-3.014-1.821-1.617-3.028-3.601-3.397-4.214-.345-.612-.05-.93.27-1.25.271-.269.616-.71.912-1.053.295-.343.418-.612.615-1.004.197-.417.099-.76-.05-1.054-.147-.294-1.378-3.283-1.87-4.508-.493-1.176-1.01-1.029-1.38-1.053h-1.181c-.419 0-1.059.147-1.625.76-.542.612-2.118 2.082-2.118 5.07 0 2.99 2.192 5.88 2.487 6.273.296.416 4.309 6.541 10.416 9.163a29.896 29.896 0 003.471 1.273c1.453.466 2.783.392 3.842.245 1.182-.171 3.62-1.47 4.112-2.89.517-1.421.517-2.622.344-2.891-.172-.27-.541-.392-1.157-.686z" fill="#FFFBF5"/></svg>
